X:1
T:20 Mélodies
T:Chanson persane
T:A EUGÈNE COUGOUL-MONDEVILLE
T:20 Mélodies
T:6. Chanson Persane
T:Augusta Holmès
T:(Holmès, d'après Hafiz)
T:OpenScore (CC0)
T:OpenScore (CC0)
T:OpenScore (CC0)
T:OpenScore (CC0)
T:OpenScore (CC0)
T:OpenScore (CC0)
T:OpenScore (CC0)
C:Holmès, Augusta
Z:(Holmès, d'après Hafiz)
Z:OpenScore (CC0)
%%score 1 { ( 2 7 ) | ( 3 4 5 6 ) }
L:1/8
Q:1/4=168
M:3/4
K:D
V:1 treble nm="Chant\nVoice"
V:2 treble nm="Piano"
V:7 treble 
V:3 bass 
V:4 bass 
V:5 bass 
V:6 bass 
V:1
"^Allegro""_Allegro" z6 | z6 | z6 | z2 !fermata!z2 z!f! !^!A | !^!d4 A A | !^!B4 F F | %6
w: |||En-|\- fant aux  yeux|noirs, ver- se-|
 !^!G4 !^!B2 | !^!A4 A A | !^!d4 A A | B4 d2 | e6 | d2- d z z2 | z6 | z6 | z2 z2 A A | d4!p! A A | %16
w: moi du|vin, Car il|faut que mon|cœur se|li-|vre! _|||Le Rê-|\- veur doit con-|
 B4 F2 | G3 F E B | (A4 e2) | d2 z B G E | A B c2 A2 | d2- d z z2 | z6 | z6 | z6 || %25
w: ter l'an-|gois- se qui l'en-|i- *|vre Pour di- ver-|\- tir un mon- de|vain! _||||
[K:F]!f! f2- f f c c | d4 !^!f2- | f3!>(! d B G!>)! | c6- | c6 | c2 z2!f! c c | f4 d B | G4 c2 | %33
w: Oui! _ je vois sur-|gir l'E-|* tre que j'a-|do-||re, De la|Coupe au re-|flêt san-|
 F2- F z z2 | z6 | z6 | z2 z2!p!!<(! c c!<)! | (f4!>(! c) d!>)! | e3!<(! e ^c e!<)! | (f4 c2) | %40
w: glant! _|||Son é-|tran- ge sou-|\- rire et son re-|gard trou-|
 e2 z2 f2- |!<(! f6- | f2!<)! f4- | (f4 F2) | %44
w: blant, Ah!|_|* Ah!|_ je|
!p![Q:1/4=156]"^rall." E2 ^F[Q:1/4=150] ^G A[Q:1/4=144] ^c | (=B6[Q:1/4=142][Q:1/4=140] | %46
w: veux les chan- ter en-|co-|
[Q:1/4=164]"^a Tempo" A2) z4 | z6 | z6 | z6 | z6 | z6 | z6 | z6 || %54
w: \- re!||||||||
[K:A]"^Ardemment"!p! (E2"^cresc." F2) B2 | (A2 c2) f2 |!>(! d2 (GB) F2-!>)! | F2!<(! E3 E!<)! | %58
w: Pour _ ton|chaud _ par-|fum qui _ tant|_ m'at- ti-|
 c6- | c z!<(! c2 f2!<)! |!>(! d2 (GB) F2-!>)! |!<(! F2 E3 E!<)! | c6 |!<(! c c c c c c!<)! | %64
w: ra,|_ Pour le|si- gne * brun|_ de ta|jou-|\- e, Je don- ne- rais tout|
!mf! e6- |!f! e A A !tenuto!A A A ||[K:F]!f! f6 | f2 z c =B A | e6- | e z c2 =B A | e6- | e6- | %72
w: l'or|_ qui des peu- ples se|jou-|e, Et Sa- mar-|kand,|_ et Bouk- ha-|ra!|_|
 e6- | e z z2!f! A A || !^!d4 A2 | !^!B4 G2 | !^!c4 G G | A3 A B c | d3 d e e | A2- A z z2 | %80
w: |* Si ma|tê- te|doit tom-|\- ber sous le|glaive En châ- ti-|ment de nos a-|mours, *|
 z2 z2 z A | d3 A F D | B2 B z B2 | (c3 G) A B | A4!f! B c | d4 d2 | e4 ^d e | g6- | (g6 | %89
w: Ma|lè- vre con- vul-|sé- e et|pâ- le pour tou-|jours, Leur  crie-|ra ta|gloire et mon|rê-||
 A2) z2 z2 |[Q:1/4=150] z6 || %91
w: ve!||
[K:D]!p!"^en souriant"[Q:1/4=72]"^Andante"[Q:1/4=72]"_Andante" (d3 A) B F | A6 | (d3 A) (B F) | %94
w: Et sous les cy-|près,|quand je dor- mi-|
!>(! A4!>)!!pp! (A A | d4 _B B | =F4 G2 ||[Q:1/4=168]"^1º Tempo allegro" A6-) | A6- | A6 | %100
w: rai Dans la|Nuit et l'ou-|\- bli des|cho-|||
 A2 z2 z2 ||[Q:1/4=72]"^Andante"!f! A2"^(à volonté)"!<(! (3(Bc) d e f!<)! | %102
w: ses,|Viens, i- * vre de blan-|
!f! g!p! c/ e/ !tenuto!B2!<(! !tenuto!A !tenuto!^A!<)! ||[Q:1/4=168]"^1º Tempo allegro" f6- | f6- | %105
w: cheurs, de bai- sers et de|ro-||
 (f2"^sans ralentir" e2 d2 | B2 G2 E2 | A2) z2 z2 | z6 | z6 | %110
w: ||ses,|||
 z2 z!f!"^à volonté"!<(! !^!B !^!c !^!e!<)! |!ff! !^!a6- | a2 z2 z2 | !^!B2 !^!c3 !^!e | %114
w: Et pour t'a-|voir|_|je re- vi-|
[Q:1/4=168]"^a Tempo" !^!d2 z2 z2 | z6 | z6 | z6 | z6 | z6 | z6 | z6 | z6 |] %123
w: \- vrai!|||||||||
V:2
!ff!{/f'} f z!f!!<(!{/f'} f z{/f'} f z |{/f'} f z{/f'} f z{/f'} f z!<)! | %2
!ff!{/a'} a z .g'.e'.c'.b | .a z !fermata!z2 z2 |!8va(! z2!f! !arpeggio![d'f'a'd'']2 z2 | %5
 z2!f! !arpeggio![bd'f'b']2 z2 | z2!f! !arpeggio![gbe'g']2 z2 | z2!f! !arpeggio![eac'e']2 z2 | %8
 z2!f! !arpeggio![d'f'a'd'']2 z2 | z2!f! !arpeggio![bd'f'b']2 z2 | %10
 z2 !arpeggio![be'g'b']2 !arpeggio![ac'e'a']2 |!f! !arpeggio![fad'f']!ff! z !^![a'a'']4- | %12
 [a'a'']2 .[g'g''].[e'e''].[c'c''].[bb'] | .[aa'] z [d'd'']3 [aa'] | %14
!>(! .[gg']2 .[ee']2 .[aa']2!>)! |!f! !arpeggio![d'f'a'd'']2!p! z2 !arpeggio![ad'f'a']2 | %16
 z2 !arpeggio![bd'f'b']2 z2 | z2 !arpeggio![gbe'g']2!8va)! z2 | z2 !arpeggio![ceg]2 z2 | %19
 z2 !arpeggio![df]2 !arpeggio![degb]2 | z2 !arpeggio![cega]2 z2 | %21
!f! !arpeggio![dfad'] z!ff!!8va(! !^![a'a'']4- | [a'a'']2 .[g'g''].[e'e''].[c'c''].[bb'] | %23
 .[aa']2 [d'd'']3 [aa'] | .[gg']2 .[ee']2 .[aa']2!8va)! || %25
[K:F]!f!!8va(! !arpeggio![fac'f'] z!ff! [f'a'c''f'']2!8va)! z2 | %26
 z2"_crescendo" !arpeggio![fad'f']2 z2 | z2 !arpeggio![gbd'f']2 z2 | z2 !arpeggio![egbc'e']2 z2 | %29
!f! !arpeggio![fac'f']!p!!<(! z!<)!!8va(! !^![c'c'']4- | [c'c'']2 .[bb'].[gg'].[ee'].[cc']!8va)! | %31
 z2 !arpeggio![fac'f']2 z2 | z2 !arpeggio![egbc']2 z2 | !arpeggio![fac']!f! z!8va(! !^![c'c'']4- | %34
 [c'c'']2 .[bb'].[gg'].[ee'].[dd'] | .[cc']2 [ff']3 .[cc']!8va)! |!>(! .[Bb]2 .[Gg]2!>)! .[cc']2 | %37
 z2 !tenuto![_eac']2 z2 | z2 !tenuto![ea^c']2 z2 | z2 !tenuto![_ea=c']2 z2 | %40
 z2 !tenuto![ea^c'] z [_ea_e']2 |!<(! [=e=e']2 [ff']2 [^f^f']2 |!8va(! [gg']2 [^g^g']2 [aa']2 | %43
 [bb']2 [=b=b']2!<)! [c'c'']2 | [^c'^c'']2 z2 z2 |!p! (^f'2 e'4) | %46
!mf!"^a Tempo" !arpeggio![a^c'e'] z !^![e'e'']4- | [e'e'']2 .[d'd''].[=b=b'].[^g^g'].[^f^f'] | %48
"_dim." .[ee']2 !^![aa']3 [ee'] | .[dd']2 .[=B=b]2 .[ee']2!8va)! | %50
!pp! !arpeggio![^cea^c'] z !^![ee']4- | [ee']2 .[dd'].[=B=b].[^G^g].[^F^f] | .[EA^ce]2 [Aa]3 [Ee] | %53
 .[Dd]2 .[=B,=B]2 .[Ee]2 ||[K:A]"^Ardemment" z!<(! ([A,-C-E][A,CF]) z z ([C-E-B] | %55
 [CEA]) z z ([Ac]- [Acf])!<)! z |!>(! ([=G=g]2 [^G^g]2 [Aa]2-!>)! |!<(! [Aa]2 [Bb]2 [^B^b]2!<)! | %58
!p!!<(! [cc']2) z!<(! ([CEF]B)!<)! z | [CEA]2 z!<(! ([Ac]f)!<)!!<)! z | %60
!>(! ([=G=g]2 [^G^g]2 [Aa]2-!>)! |!<(! [Aa]2 [Bb]2 [^B^b]2!<)! | %62
!p!!<(! [ceac']) z z!<(! ([CEF]B)!<)! z | [CEA]2 z ([Ac]-!<)![Acf]) z | %64
!f! [=GAc=g] z ([Gc]e (!^![GB-]2) | [=GB])!f! z !^![GA]4 || %66
[K:F]!f!"_cresc." [CFAc] z z ([Dd] .[Gg]2) | [FAcf] z2 ([Aa] .[dd']) z | %68
!f! [Bceb] z ([Be]g) !^![Bd]2- | [Bd]2 [Bc]2 z2 | !^![E^G=Be]2- [EGBe] z!ff! (3[ee'][ee'][ee'] | %71
 !^![ee']4 (3[ee'][ee'][ee'] | !^![ee']4 (3[ee'][ee'][ee'] | !^![ee']4!f!!8va(! !^![aa']2 || %74
!ff! !^![d'd'']2!8va)! z2 z2 |!f! !^![Bdgb] z!8va(! [bd'g'b']2!8va)! z2 | %76
 !^![cegc'] z!8va(! [c'e'g'c'']2!8va)! z2 | !^![Acfa] z!8va(! [ac'f'a']2!8va)! z2 | %78
 [FBdf] z z2 !^![^G=Bde]2 | !arpeggio![A^cea]!f! z!8va(! !^![a'a'']4- | %80
 [a'a'']2 .[g'g''].[e'e''].[^c'^c''].[aa'] | [d'd'']!8va)! z z2 z2 | %82
 [Bdgb] z!8va(! [bd'g'b']2!8va)! z2 | [cegc'] z!8va(! [c'e'g'c'']2!8va)! z2 | %84
 [Acfa] z!8va(! [ac'f'a']2!8va)! z2 | [FBdf] z!8va(! [fbd'f']2!8va)! z2 | [E^Gde] z [e^gd'e']2 z2 | %87
 [A^cga] z!f!!>(!!8va(! (!arpeggio![b^c'g'b']2 !arpeggio![ac'g'a'])!>)! z | %88
!>(! (!arpeggio![b^c'g'b']2 !arpeggio![ac'g'a'])!>)! z!>(! (!arpeggio![bc'g'b']2 | %89
 !arpeggio![a^c'g'a'])!>)! z!>(! ((!arpeggio![=bc'-g'-=b']2 [ac'g'a']2))!>)! | %90
"^rall. e dim."!>(! ([g^c'g']2 [ee']2!8va)! [A^cga]2)!>)! || %91
[K:D]!pp! !arpeggio![dfd'] z !tenuto![DFA]2 z2 |"_cantando"!<(! [GA]6!<)! | %93
 !tenuto![DFA]2 !tenuto![DFA]2 z2 |"_cantando"!<(! [GA]6!<)! |!pp! [D=F]6- | [D=F]2 z2 z2 || %97
"^1º Tempo allegro"!pp! [A,DF] z (!tenuto![Aa]4- | [Aa]2 gecB | A2 d3 A | G2 E2 A2) || %101
!f!"^Andante" !arpeggio![A,DFA]2 z2 z2 |!f!!8va(! !arpeggio!.[gc'g']!8va)! z z2 z2 || %103
!p!"^1º Tempo allegro"!8va(! !arpeggio!.[f^ae'f']2!8va)! z2 z2 | z6 | %105
 z2!pp!!8va(! !arpeggio![^a^a']2 !arpeggio![bb']2 | !arpeggio![c'c'']2!8va)! z2 z2 | %107
"^bien rythmé"!p!!<(! [Adfa]2 z ([Bb] .[ee']) z | .[dfad'] z z!<)!!8va(! ([ff'] .[bb']) z | %109
!ff! [g'g''] z .[c'c''].[e'e''] !^![bb']2- |!>(! [bb']2-!>)! [bb']!8va)! z z2 | %111
!ff! !arpeggio![gc'a']2 z2 z2 | z6 | z6 |!mf!"^a Tempo" [Adfa] z!8va(! !^![a'a'']4- | %115
 [a'a'']2 .[g'g''].[e'e''].[c'c''].[bb'] | .[aa']2 [d'd'']3 [aa'] | %117
 .[gg']2 .[ee']2 .[aa']!8va)! z |!pp! [fad'f'] z !^![aa']4- | [aa']2 .[gg'].[ee'].[cc'].[Bb] | %120
 .[Aa]2 ([dd']3 [Aa] | [Gg]2 [Ee]2 [Aa]) !fermata!z | z2 [DFA]2 !fermata!z2 |] %123
V:3
 !arpeggio![F,,,^A,,,C,,F,,] z{/F,} F z{/F,} F z |{/F,} F z{/F,} F z{/F,} F z | %2
[K:treble] !arpeggio![A,CEA] z .G.E.C.B, | A, z !fermata!z2 z2 | z2 !arpeggio![DFAd]2 z2 | %5
 z2 !arpeggio![B,DFB]2 z2 | z2 !arpeggio![E,G,B,E]2 z2 | z2 !arpeggio![A,CEA]2 z2 | %8
 z2 !arpeggio![DFAd]2 z2 | z2 !arpeggio![B,DFB]2 z2 | z2 !arpeggio![E,G,B,E]2 !arpeggio![A,CEA]2 | %11
[K:bass]!ped! z2 !^!A4-!ped-up! |!ped! !^![D,,A,,]4- [D,,A,,] z!ped-up! | %13
!ped! .A, z (D3 A,!ped-up! |!ped! G,2 E,2 A,2!ped-up! | [D,,A,,]) z[K:treble] !^!d2 !^!A2 | %16
 !^!B4 F2 | (!^!G3 F EB | A4 ^A2 | B4) GE | !^!A4 !^!A,2 |[K:bass]!ped! z2 (!^!A4!ped-up! | %22
!ped! A2) (GECB,!ped-up! | A,2 D3 A, | G,2 E,2 A,2) || %25
[K:F] !arpeggio![F,,A,,C,F,] z[K:treble] !arpeggio![FAcf]2 z2 |!p! (d4 A2 | B4 G2 | c4 C2) | %29
[K:bass]!ped! z2{CFA} (!^!c4-!ped-up! |!ped! c2 BGEC)!ped-up! |[K:treble]!<(! (F4 BG!<)! | %32
!>(! c4 C)!>)! z |[K:bass]!f!!ped! z2{CFA} !^!c4!ped-up! |!f! c2 (BGED | C2 F3 C | B,2 G,2 C2) | %37
[K:treble]!p! (!>!_E3 c A2) | (!>!=E3 ^c A2) | (!>!_E3 =c A2) | (=E>^c A) z (_E>=c | %41
 A) z (_E>c A) z | (_E>c A) z (E>c | A) z (_E>c A) z |"^rall." [=EA^c]2 z2 z2 | %45
[K:bass]!ped! [E,,E,] z[K:treble] [E^Gd]2- [EGd] z!ped-up! | %46
[K:bass]!ped! [A,,E,] z{E,A,^C} !^!E4-!ped-up! | E2 D=B,^G,^F, | !arpeggio!A,,4- A,, z | %49
 E,,4- E,, z |"_una corda"!ped! [A,,,A,,] z{E,A,^C} !^!E4-!ped-up! | %51
!ped! E2 ([E,D]=B,^G,^F,!ped-up! |!ped! E,2 A,3!ped-up! E, |!ped! D,2 =B,,2 E,2)!ped-up! || %54
[K:A]!p! (E,2 F,2 B,2 | A,2 C2 F2) |{/[E,,E,]} (D2 ^G,B, F,2) | (E,,2 E,2 E,,2) | (A,,6 | %59
 A,2 C2 F2 |{/[E,,E,]} D2 ^G,B, F,2) | (E,,2 E,2 E,,2) |!ped! (E,2 F,2 B,2!ped-up! | %63
!ped! A,2 C2 F2)!ped-up! | x2 (CE !^!B,2-) | B, z !^!A,4 ||[K:F]!ped! (C,2 D,2 G,2!ped-up! | %67
!ped! F,2 A,2 D2)!ped-up! | z2 (EG) !^!D2 | !^!C,,2 !^!C,2 !^!C,,2 | %70
 !^![E,,,E,,]2- [E,,,E,,] z (3[E,E][E,E][E,E] | !^![E,E]4 (3[E,E][E,E][E,E] | %72
 !^![E,E]4 (3[E,E][E,E][E,E] | !^![E,E]4 !^![A,,A,]2 ||!ped! [D,,D,] z [A,DF]2 z2!ped-up! | %75
!ped! [G,,G,] z[K:treble] [DGB]2 z2!ped-up! | %76
[K:bass]!ped! !^![C,,C,] z[K:treble] [CEGB]2!ped-up! z2 | %77
[K:bass]!ped! !^![F,,F,] z[K:treble] [CFA]2!ped-up! z2 |[K:bass] [B,,B,] z [B,DF] z !^![E,,E,]2 | %79
 z2 !^!A4- | A2 !arpeggio!.[A,G].E.^C.A, | [D,,D,] z [A,DF]2 z2 | [G,,G,] z[K:treble] [DGB]2 z2 | %83
[K:bass] [C,,C,] z[K:treble] [CEGB]2 z2 |[K:bass] [F,,F,] z[K:treble] [CFA]2 z2 | %85
[K:bass] [B,,B,] z [B,DF]2 z2 | [E,,E,] z [E,^G,=B,D]2 z2 | %87
 [A,,A,] z[K:treble] (!arpeggio![A,^CEB]2 !arpeggio![A,CEA]) z | %88
 (!arpeggio![A,^CEB]2 !arpeggio![A,CEA]) z (!arpeggio![A,CEB]2 | %89
 !arpeggio![A,^CEA]) z (!arpeggio![A,-C-E-=B]2 ([A,-CE-A]2) | ([A,^CEG]2) E2 A,2) || %91
[K:D][K:bass]"_una corda"!ped! !^!A,,2 A,,4!ped-up! |!ped! A,,2 A,,4!ped-up! | %93
!ped! A,,2 A,,4!ped-up! |!ped! A,,2 A,,4!ped-up! | (=F,2 G,2 =C2 | _B,2 D2 G2) || %97
"_una corda" z2 (!tenuto!A,4- | A,2 GECB, | A,2 D3 A, | G,2 E,2 A,2) || %101
 !arpeggio![D,,A,,D,]2 z2 z2 |!ped! !arpeggio!.[E,A,CG] z!ped-up! z2 z2 || %103
[K:treble] !arpeggio!.[CF^Ae]2 z2 z2 | z6 | z2 !arpeggio![Fce]2 !arpeggio![FBd]2 | %106
 !arpeggio![EGBc]2 z2 z2 |[K:bass]{/A,,} !^!A,2 !^!B,2 !^!E2 | !^!D2 !^!F2 !^!B2 | %109
 !arpeggio![A,CEG] z (CE !^!B,2-) | B,2- B, z z2 |!ped! !arpeggio![E,A,CG]2 z2 z2!ped-up! | z6 | %113
 z6 |!ped! z2{A,DF} !^!A4-!ped-up! | A z (!arpeggio!!^![A,CEG]ECB, | A,2 D3 A, | G,2 E,2 A,) z | %118
"_una corda" z2{A,DF} (!^!A4 | A) z (!arpeggio![A,CEG]ECB, | A,2) (D3 A, | G,2 E,2 A,) !fermata!z | %122
!ppp! [D,,A,,]2 z2 !fermata!z2 |] %123
V:4
 x6 | x6 |[K:treble] x6 | x6 | x6 | x6 | x6 | x6 | x6 | x6 | x6 | %11
[K:bass] !^![D,,A,,]4- [D,,A,,] z | A2 .G.E.C.B, | D,4- D, z | A,,4- A,, z | x2[K:treble] x4 | x6 | %17
 x6 | x6 | x6 | x6 |[K:bass] !^![D,,A,,]4- [D,,A,,] z | !^![D,,A,,]4- [D,,A,,] z | D,4- D, z | %24
 A,,4- A,, z ||[K:F] x2[K:treble] x4 | x6 | x6 | x6 |[K:bass] !^![F,,C,]4- [F,,C,] z | %30
 z2 !arpeggio![CEG] z z2 |[K:treble] x6 | x6 |[K:bass] !^![F,,C,]4- [F,,C,] z | %34
 z2 !arpeggio![CEG] z z2 | F,4- F, z | C,4- C, z |[K:treble] x6 | x6 | x6 | x6 | x6 | x6 | x6 | %44
 x6 |[K:bass] x2[K:treble] x4 |[K:bass] x6 | !arpeggio![E,,E,]2 z2 z2 | E,2 !^!A,3 E, | %49
 D,2 =B,,2 E,2 | x6 | [E,,,E,,]2 z2 z2 | A,,4- A,, z | E,,4- E,, z ||[K:A] A,,6 | A,,6 | x6 | x6 | %58
 E,2 F,2 B,2 | A,,4- A,, z | x6 | x6 | A,,6 | A,,4- A,, z | [A,,,A,,] z z2 z2 | [A,,,A,,]2 z2 z2 || %66
[K:F] F,,6 | F,,4- F,, z | [C,,C,]2 z2 z2 | x6 | x6 | x6 | x6 | x6 || x6 | x2[K:treble] x4 | %76
[K:bass] x2[K:treble] x4 |[K:bass] x2[K:treble] x4 |[K:bass] x6 | [A,,,A,,] z z2 z2 | %80
 [A,,,A,,]2 z2 z2 | x6 | x2[K:treble] x4 |[K:bass] x2[K:treble] x4 |[K:bass] x2[K:treble] x4 | %85
[K:bass] x6 | x6 | x2[K:treble] x4 | x6 | x6 | x6 ||[K:D][K:bass] D,,6 | D,,6 | D,,6 | D,,6 | %95
 [_B,,,_B,,]6- | [_B,,,_B,,]6 || [D,,A,,]6- | [D,,A,,]4- [D,,A,,] z | D,6 | A,,4- A,, z || x6 | %102
 x6 ||[K:treble] x6 | x6 | x6 | x6 |[K:bass] !^!A,6 | !^!A,6 | x6 | x6 | x6 | x6 | x6 | %114
 [D,,A,,]4- [D,,A,,] z | [D,,A,,]4- [D,,A,,] z | D,4- D, z | A,,4- A,, z | [D,,A,,]4- [D,,A,,] z | %119
 [D,,A,,]4- [D,,A,,] z | z6 | A,,4- A,, z | x6 |] %123
V:5
 x6 | x6 |[K:treble] x6 | x6 | x6 | x6 | x6 | x6 | x6 | x6 | x6 |[K:bass] x6 | x6 | x6 | x6 | %15
 x2[K:treble] x4 | x6 | x6 | x6 | x6 | x6 |[K:bass] x6 | x6 | x6 | x6 ||[K:F] x2[K:treble] x4 | %26
 x6 | x6 | x6 |[K:bass] x6 | !^![F,,C,]4- [F,,C,] z |[K:treble] x6 | x6 |[K:bass] x6 | x6 | x6 | %36
 x6 |[K:treble] x6 | x6 | x6 | x6 | x6 | x6 | x6 | x6 |[K:bass] x2[K:treble] x4 |[K:bass] x6 | x6 | %48
 x6 | x6 | x6 | x6 | x6 | x6 ||[K:A] x6 | x6 | x6 | x6 | x6 | x6 | x6 | x6 | x6 | x6 | x6 | x6 || %66
[K:F] x6 | x6 | x6 | x6 | x6 | x6 | x6 | x6 || x6 | x2[K:treble] x4 |[K:bass] x2[K:treble] x4 | %77
[K:bass] x2[K:treble] x4 |[K:bass] x6 | x6 | x6 | x6 | x2[K:treble] x4 |[K:bass] x2[K:treble] x4 | %84
[K:bass] x2[K:treble] x4 |[K:bass] x6 | x6 | x2[K:treble] x4 | x6 | x6 | x6 ||[K:D][K:bass] x6 | %92
 x6 | x4 x2 | x4 x2 | x6 | x6 || x6 | x6 | x6 | x6 || x6 | x6 ||[K:treble] x6 | x6 | x6 | x6 | %107
[K:bass] x6 | x6 | x6 | x6 | x6 | x6 | x6 | x6 | x6 | x6 | x6 | x6 | x6 | x6 | x6 | x6 |] %123
V:6
 x6 | x6 |[K:treble] x6 | x6 | x6 | x6 | x6 | x6 | x6 | x6 | x6 |[K:bass] x6 | x6 | x6 | x6 | %15
 x2[K:treble] x4 | x6 | x6 | x6 | x6 | x6 |[K:bass] x6 | x6 | x6 | x6 ||[K:F] x2[K:treble] x4 | %26
 x6 | x6 | x6 |[K:bass] x6 | x6 |[K:treble] x6 | x6 |[K:bass] x6 | !^![F,,C,]4- [F,,C,] z | x6 | %36
 x6 |[K:treble] x6 | x6 | x6 | x6 | x6 | x6 | x6 | x6 |[K:bass] x2[K:treble] x4 |[K:bass] x6 | x6 | %48
 x6 | x6 | x6 | x6 | x6 | x6 ||[K:A] x6 | x6 | x6 | x6 | x6 | x6 | x6 | x6 | x6 | x6 | x6 | x6 || %66
[K:F] x6 | x6 | x6 | x6 | x6 | x6 | x6 | x6 || x6 | x2[K:treble] x4 |[K:bass] x2[K:treble] x4 | %77
[K:bass] x2[K:treble] x4 |[K:bass] x6 | x6 | x6 | x6 | x2[K:treble] x4 |[K:bass] x2[K:treble] x4 | %84
[K:bass] x2[K:treble] x4 |[K:bass] x6 | x6 | x2[K:treble] x4 | x6 | x6 | x6 ||[K:D][K:bass] x6 | %92
 x6 | x6 | x6 | x6 | x6 || x6 | x6 | x6 | x6 || x6 | x6 ||[K:treble] x6 | x6 | x6 | x6 | %107
[K:bass] x6 | x6 | x6 | x6 | x6 | x6 | x6 | x6 | x6 | x6 | x6 | x6 | x6 | x6 | x6 | x6 |] %123
V:7
 x6 | x6 | x6 | x6 |!8va(! x6 | x6 | x6 | x6 | x6 | x6 | x6 | x6 | x6 | x6 | x6 | x6 | x6 | %17
 x4!8va)! x2 | x6 | x6 | x6 | x2!8va(! x4 | x6 | x6 | x6!8va)! ||[K:F]!8va(! x4!8va)! x2 | x6 | %27
 x6 | x6 | x2!8va(! x4 | x6!8va)! | x6 | x6 | x2!8va(! x4 | x6 | x6!8va)! | x6 | x6 | x6 | x6 | %40
 x6 | x6 |!8va(! x6 | x6 | x6 | [^gd']6 | x6 | x6 | x6 | x6!8va)! | x6 | x6 | x6 | x6 ||[K:A] x6 | %55
 x6 | x6 | x6 | x6 | x6 | x6 | x6 | x6 | x6 | x6 | x6 ||[K:F] x6 | x6 | x6 | x6 | x6 | x6 | x6 | %73
 x4!8va(! x2 || x2!8va)! x4 | x2!8va(! x2!8va)! x2 | x2!8va(! x2!8va)! x2 | x2!8va(! x2!8va)! x2 | %78
 x6 | x2!8va(! x4 | x6 | x!8va)! x5 | x2!8va(! x2!8va)! x2 | x2!8va(! x2!8va)! x2 | %84
 x2!8va(! x2!8va)! x2 | x2!8va(! x2!8va)! x2 | x6 | x2!8va(! x4 | x6 | x6 | x4!8va)! x2 || %91
[K:D] x6 | (CE!>(! B,2!>)! A,2-) | A,2- A,2 x2 | (CE!>(! B,2!>)! A,2) | x6 | x6 || x6 | x6 | F6 | %100
 C4- C z || x6 |!8va(! x!8va)! x5 ||!8va(! x2!8va)! x4 | x6 | x2!8va(! x4 | x2!8va)! x4 | x6 | %108
 x3!8va(! x3 | x6 | x3!8va)! x3 | x6 | x6 | x6 | x2!8va(! x4 | x6 | x6 | x5!8va)! x | x6 | x6 | %120
 x6 | x6 | x6 |] %123

